public/assets/images/process/04.svg

<svg width="28" height="28" viewBox="0 0 28 28" fill="none" xmlns="http://www.w3.org/2000/svg">
<path d="M25.25 0.875H2.75C2.25272 0.875 1.77581 1.07254 1.42417 1.42417C1.07254 1.77581 0.875 2.25272 0.875 2.75V21.5C0.875 21.9973 1.07254 22.4742 1.42417 22.8258C1.77581 23.1775 2.25272 23.375 2.75 23.375H3.6875C3.93614 23.375 4.1746 23.2762 4.35041 23.1004C4.52623 22.9246 4.625 22.6861 4.625 22.4375C4.625 22.1889 4.52623 21.9504 4.35041 21.7746C4.1746 21.5988 3.93614 21.5 3.6875 21.5H2.75V2.75H9.86563L13.3344 6.22813C13.422 6.31501 13.5259 6.38376 13.6401 6.43041C13.7543 6.47706 13.8766 6.50071 14 6.5H25.25V21.5H24.3125C24.0639 21.5 23.8254 21.5988 23.6496 21.7746C23.4738 21.9504 23.375 22.1889 23.375 22.4375C23.375 22.6861 23.4738 22.9246 23.6496 23.1004C23.8254 23.2762 24.0639 23.375 24.3125 23.375H25.25C25.7473 23.375 26.2242 23.1775 26.5758 22.8258C26.9275 22.4742 27.125 21.9973 27.125 21.5V2.75C27.125 2.25272 26.9275 1.77581 26.5758 1.42417C26.2242 1.07254 25.7473 0.875 25.25 0.875ZM14.3844 4.625L12.5094 2.75H25.25V4.625H14.3844Z" fill="#0F62FE"/>
<path d="M6.5 5.5625C6.5 5.31386 6.40123 5.0754 6.22541 4.89959C6.0496 4.72377 5.81114 4.625 5.5625 4.625C5.37708 4.625 5.19582 4.67998 5.04165 4.783C4.88748 4.88601 4.76732 5.03243 4.69636 5.20373C4.62541 5.37504 4.60684 5.56354 4.64301 5.7454C4.67919 5.92725 4.76848 6.0943 4.89959 6.22541C5.0307 6.35652 5.19775 6.44581 5.3796 6.48199C5.56146 6.51816 5.74996 6.49959 5.92127 6.42864C6.09257 6.35768 6.23899 6.23752 6.342 6.08335C6.44502 5.92918 6.5 5.74792 6.5 5.5625Z" fill="#0F62FE"/>
<path d="M10.25 5.5625C10.25 5.31386 10.1512 5.0754 9.97541 4.89959C9.7996 4.72377 9.56114 4.625 9.3125 4.625C9.12708 4.625 8.94582 4.67998 8.79165 4.783C8.63748 4.88601 8.51732 5.03243 8.44636 5.20373C8.37541 5.37504 8.35684 5.56354 8.39301 5.7454C8.42919 5.92725 8.51848 6.0943 8.64959 6.22541C8.7807 6.35652 8.94775 6.44581 9.1296 6.48199C9.31146 6.51816 9.49996 6.49959 9.67127 6.42864C9.84257 6.35768 9.98899 6.23752 10.092 6.08335C10.195 5.92918 10.25 5.74792 10.25 5.5625Z" fill="#0F62FE"/>
<path d="M21.3406 19.5215L20.5625 18.9309C20.575 18.7687 20.575 18.6057 20.5625 18.4434L21.35 17.8528C21.7172 17.5805 21.9722 17.1834 22.0672 16.7363C22.1621 16.2891 22.0904 15.8227 21.8656 15.4247L20.825 13.6059C20.5993 13.2094 20.2368 12.9087 19.8054 12.7603C19.3739 12.6119 18.9031 12.6259 18.4813 12.7997L17.5438 13.1747C17.3742 13.0626 17.199 12.9593 17.0188 12.8653L16.8969 11.9278C16.8395 11.4722 16.6169 11.0534 16.2713 10.751C15.9257 10.4486 15.4811 10.2836 15.0219 10.2872H12.95C12.4908 10.2836 12.0462 10.4486 11.7006 10.751C11.355 11.0534 11.1324 11.4722 11.075 11.9278L10.9531 12.8653C10.7729 12.9593 10.5977 13.0626 10.4281 13.1747L9.49064 12.7997C9.06765 12.6232 8.59469 12.6079 8.16113 12.7564C7.72757 12.905 7.36343 13.2072 7.13751 13.6059L6.10626 15.4247C5.88047 15.8216 5.80732 16.2873 5.90053 16.7344C5.99374 17.1815 6.24691 17.5791 6.61251 17.8528L7.40001 18.4434C7.38753 18.6057 7.38753 18.7687 7.40001 18.9309L6.61251 19.5215C6.24691 19.7952 5.99374 20.1929 5.90053 20.6399C5.80732 21.087 5.88047 21.5527 6.10626 21.9497L7.13751 23.7684C7.36319 24.165 7.72572 24.4656 8.15717 24.614C8.58862 24.7624 9.05939 24.7485 9.48126 24.5747L10.4188 24.1997C10.5883 24.3117 10.7636 24.415 10.9438 24.509L11.0656 25.4465C11.123 25.9022 11.3456 26.3209 11.6912 26.6233C12.0368 26.9257 12.4814 27.0908 12.9406 27.0872H15.0406C15.4999 27.0908 15.9444 26.9257 16.29 26.6233C16.6356 26.3209 16.8582 25.9022 16.9156 25.4465L17.0375 24.509C17.2177 24.415 17.3929 24.3117 17.5625 24.1997L18.5 24.5747C18.923 24.7511 19.396 24.7665 19.8295 24.6179C20.2631 24.4694 20.6272 24.1672 20.8531 23.7684L21.8938 21.9497C22.1147 21.5474 22.1805 21.078 22.0785 20.6305C21.9766 20.183 21.714 19.7884 21.3406 19.5215ZM18.6875 18.6872C18.6972 18.8777 18.6972 19.0685 18.6875 19.259C18.6675 19.4222 18.6907 19.5878 18.7549 19.7392C18.819 19.8906 18.9219 20.0225 19.0531 20.1215L20.2625 21.059L19.2219 22.8778L17.8344 22.3059C17.6813 22.2414 17.5139 22.2186 17.3492 22.24C17.1844 22.2614 17.0283 22.3262 16.8969 22.4278C16.5742 22.6846 16.2177 22.896 15.8375 23.0559C15.6874 23.1198 15.5566 23.2217 15.458 23.3516C15.3593 23.4815 15.2962 23.6348 15.275 23.7965L15.05 25.2497H12.95L12.7625 23.759C12.7413 23.5973 12.6782 23.4439 12.5796 23.3141C12.4809 23.1842 12.3501 23.0823 12.2 23.0184C11.8388 22.8694 11.4984 22.674 11.1875 22.4372C11.0213 22.3082 10.8166 22.2388 10.6063 22.2403C10.4838 22.2418 10.3627 22.2673 10.25 22.3153L8.86251 22.8872L7.77501 21.0215L8.98439 20.084C9.11562 19.985 9.21848 19.8531 9.28265 19.7017C9.34683 19.5503 9.37006 19.3847 9.35001 19.2215C9.3 18.8419 9.3 18.4574 9.35001 18.0778C9.37006 17.9146 9.34683 17.749 9.28265 17.5976C9.21848 17.4462 9.11562 17.3144 8.98439 17.2153L7.77501 16.2778L8.81564 14.459L10.2031 15.0309C10.3562 15.0955 10.5236 15.1182 10.6884 15.0968C10.8531 15.0754 11.0092 15.0106 11.1406 14.909C11.4634 14.6522 11.8198 14.4409 12.2 14.2809C12.3501 14.2171 12.4809 14.1152 12.5796 13.9853C12.6782 13.8554 12.7413 13.702 12.7625 13.5403L12.95 12.0497H15.05L15.2375 13.5403C15.2587 13.702 15.3218 13.8554 15.4205 13.9853C15.5191 14.1152 15.6499 14.2171 15.8 14.2809C16.1802 14.4409 16.5367 14.6522 16.8594 14.909C16.9908 15.0106 17.1469 15.0754 17.3117 15.0968C17.4764 15.1182 17.6438 15.0955 17.7969 15.0309L19.1844 14.459L20.225 16.2778L19.0156 17.2153C18.8844 17.3144 18.7815 17.4462 18.7174 17.5976C18.6532 17.749 18.63 17.9146 18.65 18.0778C18.6735 18.2801 18.6861 18.4835 18.6875 18.6872Z" fill="#0F62FE"/>
<path d="M14 15.875C13.4437 15.875 12.9 16.0399 12.4375 16.349C11.9749 16.658 11.6145 17.0973 11.4016 17.6112C11.1887 18.1251 11.133 18.6906 11.2415 19.2362C11.3501 19.7818 11.6179 20.2829 12.0113 20.6762C12.4046 21.0696 12.9057 21.3374 13.4513 21.446C13.9969 21.5545 14.5624 21.4988 15.0763 21.2859C15.5902 21.073 16.0295 20.7126 16.3385 20.25C16.6476 19.7875 16.8125 19.2438 16.8125 18.6875C16.8125 17.9416 16.5162 17.2262 15.9887 16.6988C15.4613 16.1713 14.7459 15.875 14 15.875ZM14 19.625C13.8146 19.625 13.6333 19.57 13.4792 19.467C13.325 19.364 13.2048 19.2176 13.1339 19.0463C13.0629 18.875 13.0443 18.6865 13.0805 18.5046C13.1167 18.3227 13.206 18.1557 13.3371 18.0246C13.4682 17.8935 13.6352 17.8042 13.8171 17.768C13.999 17.7318 14.1875 17.7504 14.3588 17.8214C14.5301 17.8923 14.6765 18.0125 14.7795 18.1667C14.8825 18.3208 14.9375 18.5021 14.9375 18.6875C14.9375 18.9361 14.8387 19.1746 14.6629 19.3504C14.4871 19.5262 14.2486 19.625 14 19.625Z" fill="#0F62FE"/>
</svg>

<svg xmlns="http://www.w3.org/2000/svg" width="28" height="28" fill="none" viewBox="0 0 28 28"><path fill="#0f62fe" d="M25.25.875H2.75A1.875 1.875 0 0 0 .875 2.75V21.5a1.875 1.875 0 0 0 1.875 1.875h.938a.938.938 0 0 0 0-1.875H2.75V2.75h7.116l3.468 3.478A.94.94 0 0 0 14 6.5h11.25v15h-.937a.938.938 0 0 0 0 1.875h.937a1.875 1.875 0 0 0 1.875-1.875V2.75A1.875 1.875 0 0 0 25.25.875m-10.866 3.75L12.51 2.75h12.74v1.875z"/><path fill="#0f62fe" d="M6.5 5.563a.937.937 0 1 0-1.875 0 .937.937 0 0 0 1.875 0m3.75 0a.938.938 0 1 0-1.875 0 .938.938 0 0 0 1.875 0m11.09 13.959-.777-.591a3 3 0 0 0 0-.488l.787-.59a1.875 1.875 0 0 0 .516-2.428l-1.041-1.82a1.875 1.875 0 0 0-2.344-.805l-.937.375a6 6 0 0 0-.525-.31l-.122-.937a1.875 1.875 0 0 0-1.875-1.64H12.95a1.875 1.875 0 0 0-1.875 1.64l-.122.937q-.27.142-.525.31l-.937-.375a1.875 1.875 0 0 0-2.353.806l-1.032 1.819a1.875 1.875 0 0 0 .507 2.428l.787.59a3 3 0 0 0 0 .488l-.787.59a1.875 1.875 0 0 0-.507 2.429l1.032 1.818a1.875 1.875 0 0 0 2.343.807l.938-.375q.255.168.525.309l.122.938a1.875 1.875 0 0 0 1.875 1.64h2.1a1.875 1.875 0 0 0 1.875-1.64l.122-.938q.27-.14.524-.31l.938.376a1.875 1.875 0 0 0 2.353-.807l1.04-1.818a1.875 1.875 0 0 0-.552-2.428m-2.652-.835q.015.285 0 .572a.94.94 0 0 0 .365.863l1.21.937-1.041 1.819-1.388-.572a.94.94 0 0 0-.937.122c-.323.257-.68.468-1.06.628a.94.94 0 0 0-.562.74l-.225 1.454h-2.1l-.187-1.491a.94.94 0 0 0-.563-.74 4.5 4.5 0 0 1-1.012-.582.94.94 0 0 0-.938-.122l-1.387.572-1.088-1.866 1.21-.937a.94.94 0 0 0 .365-.863c-.05-.38-.05-.764 0-1.143a.94.94 0 0 0-.366-.863l-1.209-.937 1.04-1.819 1.388.572a.94.94 0 0 0 .938-.122 4.5 4.5 0 0 1 1.059-.628.94.94 0 0 0 .563-.74l.187-1.491h2.1l.188 1.49a.94.94 0 0 0 .562.74c.38.16.737.372 1.06.629a.94.94 0 0 0 .937.122l1.387-.572 1.041 1.819-1.21.937a.94.94 0 0 0-.365.863q.036.303.038.61"/><path fill="#0f62fe" d="M14 15.875a2.812 2.812 0 1 0 0 5.624 2.812 2.812 0 0 0 0-5.624m0 3.75a.937.937 0 1 1 0-1.875.937.937 0 0 1 0 1.875"/></svg>
